!!!!SEGMENT: pl-sa--173-a-v-3--005_szczurowski-jacek--missa-ex-d-benedictus.krn
!!!cenid: 17xx:257
!!!COM: Szczurowski, Jacek
!!!COM-rismID: pe30017605
!!!CDT: 1716/08/15-~1733
!!!CNT: Polish
!!!OPR: Missa ex D
!!!OTL: Benedictus
!!!OMV: 005
!!!PDT:
!!!AGN: Sacred; Mass
!!!SMS-siglum: PL-SA
!!!SMS-shelfmark: 173/A V 3
!!!SMS-shelfwork: 005-005 M
!!!NIFC-rismSourceID: 1001035621
!!!NIFC-rismChildID: 1001035621
!!!NIFC-islandoraID: none
!!!URL-pdf-islandora:
!!!URL-scan: https://bc.bdsandomierz.pl/dlibra/publication/1507/edition/1475/content @EN{Scan in the Sandomierz Diocese Digital Library} @PL{Skany w portalu Cyfrowa Biblioteka Diecezjalna w Sandomierzu}
!!!ONB-nifc: UWAGA: części Mszy: Kyrie, Gloria, Credo, Sanctus, Benedictus, Agnus Dei
!!!AIN: 4 empty 2 violn 1 vox
!!!key: A
**kern	**fba	**dynam	**kern	**kern	**dynam	**kern	**kern	**text	**kern	**kern
*	*	*	*group3	*group3	*	*group2	*group2	*	*group1	*group1
*part7	*part7	*part7	*part6	*part5	*part5	*part4	*part3	*part3	*part2	*part1
*staff7	*	*	*staff6	*staff5	*	*staff4	*staff3	*staff3	*staff2	*staff1
*Iempty	*	*	*Ivioln	*Ivioln	*	*Iempty	*Ivox	*	*Iempty	*Iempty
*I"Fundamento	*	*	*I"Violino. 2do.	*I"Violino 1mo.	*	*I"Baſso	*I"Canto	*	*I"Clarino 2do. ex D.	*I"Clarino. 1mo. Ex. D.
*I'org	*	*	*I'vl 2	*I'vl 1	*	*I'B	*I'S	*	*I'clno 2	*I'clno 1
*Iorgan	*	*	*Ivioln	*Ivioln	*	*Ibass	*Isoprn	*	*Iclrno	*Iclrno
*ICklav	*	*	*ICstr	*ICstr	*	*ICvox	*ICvox	*	*ICbras	*ICbras
*IGcont	*	*	*	*	*	*IGsolo	*IGsolo	*	*	*
*mI"Basso continuo	*	*	*mI"Violino II	*mI"Violino I	*	*mI"Basso	*mI"Soprano	*	*mI"Clarino II in D	*mI"Clarino I in D
*clefF4	*	*	*clefG2	*clefG2	*	*clefF4	*clefC1	*	*clefG2	*clefG2
*	*	*	*	*	*	*	*mclefG2	*	*	*
*	*	*	*	*	*	*	*	*	*ITrd-1c-2	*ITrd-1c-2
*k[f#c#g#]	*	*	*k[f#c#g#]	*k[f#c#g#]	*	*k[f#c#g#]	*k[f#c#g#]	*	*k[f#c#g#]	*k[f#c#g#]
*A:	*	*	*A:	*A:	*	*A:	*A:	*	*A:	*A:
*M4/4	*	*	*M4/4	*M4/4	*	*M4/4	*M4/4	*	*M4/4	*M4/4
*met(c)	*	*	*met(c)	*met(c)	*	*met(c)	*met(c)	*	*met(c)	*met(c)
*mmet(c)	*	*	*mmet(c)	*mmet(c)	*	*mmet(c)	*mmet(c)	*	*mmet(c)	*mmet(c)
*	*	*	*tacet	*	*	*tacet	*	*	*tacet	*tacet
=1	=1	=1	=1	=1	=1	=1	=1	=1	=1	=1
!	!	!	!	!LO:MO:mod=!LO&colon;TX&colon;i&colon;t=Solo	!	!	!	!	!LO:TX:a:mod=:t=Benedictus \nTacet \nOſanna \nut Pleni ſunt	!LO:TX:a:mod=:t=Benedictus \nTacet. \nOsanna ut pleni \nSunt.
!	!	!	!	!	!	!	!	!	!	!LO:TX:t=P:problem=w źródle "Benedictus Tacet." zapisane na pięciolinii a "Osanna ut pleni sunt." pod pięciolinią
!LO:TX:a:t=Llente. Solo.:mod=	!	!	!LO:TX:a:mod=:t=Benedictus \nTacet. \nOsanna ut Pleni \nsunt caeli	!LO:TX:b:t=Benedictus.:mod=	!	!	!	!	!LO:TX:t=P:problem=w źródle "Benedictus Tacet Osanna ut pleni sunt" zapisane na pięciolinii	!
!LO:TX:b:t=Benedictus.:mod=	!	!	!	!LO:TX:a:t=Lentiſsime:mod=	!	!LO:TX:a:mod=:t=Benedictus \nTacet.	!LO:TX:a:t=Andant Solo.:mod=	!	!	!
8AA/L	.	.	1ryy	2a/	.	1ryy	00r	.	1ryy	1ryy
8AA/	.	.	.	.	.	.	.	.	.	.
8AA/	.	.	.	.	.	.	.	.	.	.
8AA/J	.	.	.	.	.	.	.	.	.	.
8AA/L	.	.	.	16r	.	.	.	.	.	.
.	.	.	.	16a\LL	.	.	.	.	.	.
!	!	!	!	!LO:TX:a:t=Solo.:mod=	!	!	!	!	!	!
8AA/	.	.	.	16b\	.	.	.	.	.	.
.	.	.	.	16cc#\JJ	.	.	.	.	.	.
8AA/	.	.	.	16dd\LL	.	.	.	.	.	.
.	.	.	.	16ee\	.	.	.	.	.	.
8AA/J	.	.	.	16ff#\	.	.	.	.	.	.
.	.	.	.	16gg#\JJ	.	.	.	.	.	.
=2	=2	=2	=2	=2	=2	=2	=2	=2	=2	=2
*	*	*	*	*2\right	*	*	*	*	*	*
8AA/L	.	.	1ryy	2aaT\	.	1ryy	.	.	1ryy	1ryy
8AA/	.	.	.	.	.	.	.	.	.	.
8AA/	.	.	.	.	.	.	.	.	.	.
8AA/J	.	.	.	.	.	.	.	.	.	.
!	!	!	!	!LO:TUP:a	!	!	!	!	!	!
8E\L	.	.	.	24gg#\LL	.	.	.	.	.	.
.	.	.	.	24aa\	.	.	.	.	.	.
.	.	.	.	24bb\JJ	.	.	.	.	.	.
8E\	.	.	.	16dd\LL	.	.	.	.	.	.
.	.	.	.	16dd\JJ	.	.	.	.	.	.
!	!	!	!	!LO:MO:mod=*null:null	!	!	!	!	!	!
*	*	*	*	*Xtuplet	*	*	*	*	*	*
8E\	.	.	.	24b\LL	.	.	.	.	.	.
.	.	.	.	24cc#\	.	.	.	.	.	.
.	.	.	.	24dd\JJ	.	.	.	.	.	.
8E\J	.	.	.	16b\LL	.	.	.	.	.	.
.	.	.	.	16b\JJ	.	.	.	.	.	.
=3	=3	=3	=3	=3	=3	=3	=3	=3	=3	=3
8A\L	.	.	1ryy	16cc#\LL	.	1ryy	.	.	1ryy	1ryy
.	.	.	.	16b\J	.	.	.	.	.	.
8A\	.	.	.	8a\J	.	.	.	.	.	.
8A\	.	.	.	8r	.	.	.	.	.	.
8A\J	.	.	.	8cc#\	.	.	.	.	.	.
.	.	.	.	8qqdd#X/	.	.	.	.	.	.
*	*above	*	*	*	*	*	*	*	*	*
8G#\L	6	.	.	2eeT\	.	.	.	.	.	.
8G#\	.	.	.	.	.	.	.	.	.	.
8G#\	.	.	.	.	.	.	.	.	.	.
8G#\J	.	.	.	.	.	.	.	.	.	.
=4	=4	=4	=4	=4	=4	=4	=4	=4	=4	=4
*	*	*	*	*tuplet	*	*	*	*	*	*
!	!	!	!	!LO:TUP:a	!	!	!	!	!	!
8F#\L	.	.	1ryy	24ff#\LL	.	1ryy	.	.	1ryy	1ryy
.	.	.	.	24dd#X\	.	.	.	.	.	.
.	.	.	.	24ee\JJ	.	.	.	.	.	.
!	!	!	!	!LO:TUP:a	!	!	!	!	!	!
8F#\	6	.	.	24ff#\LL	.	.	.	.	.	.
.	.	.	.	24ee\	.	.	.	.	.	.
.	.	.	.	24dd#\JJ	.	.	.	.	.	.
!	!	!	!	!LO:TX:a:t=P:problem=mixed beam	!	!	!	!	!	!
8F#\	.	.	.	8ff#\L	.	.	.	.	.	.
8F#\J	.	.	.	8a/J	.	.	.	.	.	.
8E\L	.	.	.	32g#/LLL	.	.	.	.	.	.
.	.	.	.	32f#/J	.	.	.	.	.	.
.	.	.	.	16e/JJ	.	.	.	.	.	.
8A\	.	.	.	8r	.	.	.	.	.	.
!LO:TX:a:t=P:problem=mixed beam	!	!	!	!	!	!	!	!	!	!
8B\	.	.	.	4f#/	.	.	.	.	.	.
8BB/J	#	.	.	.	.	.	.	.	.	.
=5	=5	=5	=5	=5	=5	=5	=5	=5	=5	=5
8E\L	.	.	1ryy	4e/	.	1ryy	00r	.	1ryy	1ryy
8E\	.	.	.	.	.	.	.	.	.	.
8E\	.	.	.	4r	.	.	.	.	.	.
8E\J	.	.	.	.	.	.	.	.	.	.
!	!	!	!	!LO:LB:g=original	!	!	!	!	!	!
8A#X\L	.	.	.	4.ggn\	.	.	.	.	.	.
8A#\	24:	.	.	.	.	.	.	.	.	.
8A#\	.	.	.	.	.	.	.	.	.	.
8A#\J	.	.	.	16ff#\LL	.	.	.	.	.	.
.	.	.	.	16ee\JJ	.	.	.	.	.	.
=6	=6	=6	=6	=6	=6	=6	=6	=6	=6	=6
8B\L	.	.	1ryy	16dd\LL	.	1ryy	.	.	1ryy	1ryy
.	.	.	.	16cc#\J	.	.	.	.	.	.
8B\	.	.	.	8b\J	.	.	.	.	.	.
8B\	.	.	.	4r	.	.	.	.	.	.
8B\J	.	.	.	.	.	.	.	.	.	.
*2\right	*	*	*	*	*	*	*	*	*	*
*tremolo	*	*	*	*	*	*	*	*	*	*
8G#\L	.	.	.	4.ff#\	.	.	.	.	.	.
8G#\	.	.	.	.	.	.	.	.	.	.
8G#\	.	.	.	.	.	.	.	.	.	.
8G#\J	.	.	.	16ee\LL	.	.	.	.	.	.
.	.	.	.	16dd\JJ	.	.	.	.	.	.
*Xtremolo	*	*	*	*	*	*	*	*	*	*
!LO:LB:g=original	!	!	!	!	!	!	!	!	!	!
=7	=7	=7	=7	=7	=7	=7	=7	=7	=7	=7
8A\L	.	.	1ryy	16cc#\LL	.	1ryy	.	.	1ryy	1ryy
.	.	.	.	16b\J	.	.	.	.	.	.
8A\	.	.	.	8a\J	.	.	.	.	.	.
8A\	.	.	.	8r	.	.	.	.	.	.
8A\J	.	.	.	8ee\	.	.	.	.	.	.
!	!	!	!	!LO:TX:a:t=P:problem=mixed beam	!	!	!	!	!	!
4d\	.	.	.	8ff#\L	.	.	.	.	.	.
.	.	.	.	16d/L	.	.	.	.	.	.
.	.	.	.	16ff#\JJ	.	.	.	.	.	.
!	!	!	!	!LO:TX:a:t=P:problem=mixed beam	!	!	!	!	!	!
4c#\	.	.	.	8ee\L	.	.	.	.	.	.
.	.	.	.	16c#/L	.	.	.	.	.	.
.	.	.	.	16ee\JJ	.	.	.	.	.	.
=8	=8	=8	=8	=8	=8	=8	=8	=8	=8	=8
!	!	!	!	!LO:TX:a:t=P:problem=mixed beam	!	!	!	!	!	!
4B\	.	.	1ryy	8dd\L	.	1ryy	.	.	1ryy	1ryy
.	.	.	.	16B/L	.	.	.	.	.	.
.	.	.	.	16dd\JJ	.	.	.	.	.	.
!	!	!	!	!LO:TX:a:t=P:problem=mixed beam	!	!	!	!	!	!
4A\	.	.	.	8cc#\L	.	.	.	.	.	.
.	.	.	.	16A/L	.	.	.	.	.	.
.	.	.	.	16cc#\JJ	.	.	.	.	.	.
.	.	.	.	8qqcc#/	.	.	.	.	.	.
8G#\L	6	.	.	4b/	.	.	.	.	.	.
16F#\L	.	.	.	.	.	.	.	.	.	.
16G#\JJ	.	.	.	.	.	.	.	.	.	.
8G#\L	.	.	.	8r	.	.	.	.	.	.
8E\J	.	.	.	8b/	.	.	.	.	.	.
=9	=9	=9	=9	=9	=9	=9	=9	=9	=9	=9
4A\	.	.	1ryy	32cc#/LLL	.	1ryy	0r	.	1ryy	1ryy
.	.	.	.	32A/	.	.	.	.	.	.
.	.	.	.	32B/	.	.	.	.	.	.
.	.	.	.	32c#/	.	.	.	.	.	.
.	.	.	.	32d/	.	.	.	.	.	.
.	.	.	.	32e/	.	.	.	.	.	.
.	.	.	.	32f#/	.	.	.	.	.	.
.	.	.	.	64g#/L	.	.	.	.	.	.
.	.	.	.	64a/JJJJ	.	.	.	.	.	.
4B\	.	.	.	32b/LLL	.	.	.	.	.	.
.	.	.	.	32B/	.	.	.	.	.	.
.	.	.	.	32c#/	.	.	.	.	.	.
.	.	.	.	32d/	.	.	.	.	.	.
.	.	.	.	32e/	.	.	.	.	.	.
.	.	.	.	32f#/	.	.	.	.	.	.
.	.	.	.	32g#/	.	.	.	.	.	.
.	.	.	.	64a/L	.	.	.	.	.	.
.	.	.	.	64b/JJJJ	.	.	.	.	.	.
!	!	!	!	!LO:LB:g=original	!	!	!	!	!	!
!	!	!	!	!LO:TX:a:t=P:problem=mixed beam	!	!	!	!	!	!
4c#\	.	.	.	32ee\LLL	.	.	.	.	.	.
.	.	.	.	32c#/	.	.	.	.	.	.
.	.	.	.	32d/	.	.	.	.	.	.
.	.	.	.	32e/	.	.	.	.	.	.
.	.	.	.	32f#/	.	.	.	.	.	.
.	.	.	.	32g#/	.	.	.	.	.	.
.	.	.	.	32a/	.	.	.	.	.	.
.	.	.	.	64b/L	.	.	.	.	.	.
.	.	.	.	64cc#/JJJJ	.	.	.	.	.	.
!	!	!	!	!LO:TX:a:t=P:problem=mixed beam	!	!	!	!	!	!
4d\	.	.	.	32ff#\LLL	.	.	.	.	.	.
.	.	.	.	32d/	.	.	.	.	.	.
.	.	.	.	32e/	.	.	.	.	.	.
.	.	.	.	32f#/	.	.	.	.	.	.
.	.	.	.	32g#/	.	.	.	.	.	.
.	.	.	.	32a/	.	.	.	.	.	.
.	.	.	.	32b/	.	.	.	.	.	.
.	.	.	.	64cc#/L	.	.	.	.	.	.
.	.	.	.	64dd/JJJJ	.	.	.	.	.	.
=10	=10	=10	=10	=10	=10	=10	=10	=10	=10	=10
8e\L	.	.	1ryy	8gg#\L	.	1ryy	.	.	1ryy	1ryy
8e\	.	.	.	8aa\J	.	.	.	.	.	.
8e\	.	.	.	8b\L	.	.	.	.	.	.
8e\J	.	.	.	8dd\J	.	.	.	.	.	.
8A\L	.	.	.	8cc#\L	.	.	.	.	.	.
8D\J	6	.	.	8a\J	.	.	.	.	.	.
!LO:TX:a:t=P:problem=mixed beam	!	!	!	!	!	!	!	!	!	!
8E\L	#	.	.	4b;;/	.	.	.	.	.	.
8EE/J	.	.	.	.	.	.	.	.	.	.
=11	=11	=11	=11	=11	=11	=11	=11	=11	=11	=11
!	!	!	!	!	!LO:DY:b	!	!	!	!	!
8AA/L	.	.	1ryy	8a/	p	1ryy	4.ee\	Be-	1ryy	1ryy
8AA/	.	.	.	4cc#\	.	.	.	.	.	.
8AA/	.	.	.	.	.	.	.	.	.	.
8AA/J	.	.	.	8b\	.	.	8dd\	-ne-	.	.
8AA/L	.	.	.	16a/LL	.	.	16cc#\LL	-di-	.	.
.	.	.	.	16g#/J	.	.	16b\JJ	.	.	.
8AA/	.	.	.	8a/J	.	.	8cc#\	-ctus	.	.
8AA/	.	.	.	8r	.	.	8r	.	.	.
8AA/J	.	.	.	8b/	.	.	8dd\	qui	.	.
=12	=12	=12	=12	=12	=12	=12	=12	=12	=12	=12
8AA/L	.	.	1ryy	16cc#\LL	.	1ryy	16ee\LL	ve-	1ryy	1ryy
.	.	.	.	16b\J	.	.	16dd\JJ	.	.	.
8AA/	.	.	.	8cc#\J	.	.	8ee\	-nit	.	.
8AA/	.	.	.	8r	.	.	8r	.	.	.
8AA/J	.	.	.	8dd\	.	.	8ff#\	in	.	.
8AA/L	.	.	.	16cc#\LL	.	.	8ee\	Do-	.	.
.	.	.	.	16aa\J	.	.	.	.	.	.
8D/J	.	.	.	8aa\J	.	.	16dd\	-mi-	.	.
.	.	.	.	.	.	.	16cc#\	-ne	.	.
!LO:TX:a:t=P:problem=mixed beam	!	!	!	!	!	!	!	!	!	!
8E\L	.	.	.	4g#/	.	.	8.b\	Do-	.	.
8EE/J	.	.	.	.	.	.	.	.	.	.
.	.	.	.	.	.	.	16b\	-mi-	.	.
=13	=13	=13	=13	=13	=13	=13	=13	=13	=13	=13
8AA/L	.	.	1ryy	2a\	.	1ryy	4a\	-ni	1ryy	1ryy
8AA/	.	.	.	.	.	.	.	.	.	.
8AA/	.	.	.	.	.	.	4r	.	.	.
8AA/J	.	.	.	.	.	.	.	.	.	.
8AA/L	.	.	.	16r	.	.	2r	.	.	.
.	.	.	.	16a/LL	.	.	.	.	.	.
8AA/	.	.	.	16b/	.	.	.	.	.	.
.	.	.	.	16cc#/JJ	.	.	.	.	.	.
8AA/	.	.	.	16dd\LL	.	.	.	.	.	.
.	.	.	.	16ee\	.	.	.	.	.	.
8AA/J	.	.	.	16ff#\	.	.	.	.	.	.
.	.	.	.	16gg#\JJ	.	.	.	.	.	.
!LO:LB:g=original	!	!	!	!LO:LB:g=original	!	!	!	!	!	!
=14	=14	=14	=14	=14	=14	=14	=14	=14	=14	=14
8AA/L	.	.	1ryy	2aa\	.	1ryy	00r	.	1ryy	1ryy
8AA/	.	.	.	.	.	.	.	.	.	.
8AA/	.	.	.	.	.	.	.	.	.	.
8AA/J	.	.	.	.	.	.	.	.	.	.
!	!	!	!	!LO:MO:mod=*null:null	!	!	!	!	!	!
*	*	*	*	*Xtuplet	*	*	*	*	*	*
8E\L	.	.	.	24gg#\LL	.	.	.	.	.	.
.	.	.	.	24aa\	.	.	.	.	.	.
.	.	.	.	24bb\JJ	.	.	.	.	.	.
8E\	#	.	.	16dd\LL	.	.	.	.	.	.
.	.	.	.	16dd\JJ	.	.	.	.	.	.
8E\	.	.	.	24b\LL	.	.	.	.	.	.
.	.	.	.	24cc#\	.	.	.	.	.	.
.	.	.	.	24dd\JJ	.	.	.	.	.	.
8E\J	.	.	.	16b\LL	.	.	.	.	.	.
.	.	.	.	16b\JJ	.	.	.	.	.	.
=15	=15	=15	=15	=15	=15	=15	=15	=15	=15	=15
8A\L	.	.	1ryy	16cc#\LL	.	1ryy	.	.	1ryy	1ryy
.	.	.	.	16b\J	.	.	.	.	.	.
8A\	.	.	.	8a\J	.	.	.	.	.	.
8A\	.	.	.	8r	.	.	.	.	.	.
8A\J	.	.	.	8b\	.	.	.	.	.	.
.	.	.	.	8qqdd#X/	.	.	.	.	.	.
8G#\L	.	.	.	2ee\	.	.	.	.	.	.
8G#\	6	.	.	.	.	.	.	.	.	.
8G#\	.	.	.	.	.	.	.	.	.	.
8G#\J	.	.	.	.	.	.	.	.	.	.
=16	=16	=16	=16	=16	=16	=16	=16	=16	=16	=16
8F#\L	.	.	1ryy	24ff#\LL	.	1ryy	.	.	1ryy	1ryy
.	.	.	.	24dd#X\	.	.	.	.	.	.
.	.	.	.	24ee\JJ	.	.	.	.	.	.
8F#\	6	.	.	24ff#\LL	.	.	.	.	.	.
.	.	.	.	24ee\	.	.	.	.	.	.
.	.	.	.	24dd#\JJ	.	.	.	.	.	.
!	!	!	!	!LO:TX:a:t=P:problem=mixed beam	!	!	!	!	!	!
8F#\	.	.	.	8ff#\L	.	.	.	.	.	.
8F#\J	.	.	.	8a/J	.	.	.	.	.	.
8E\L	.	.	.	32g#X/LLL	.	.	.	.	.	.
.	.	.	.	32f#/J	.	.	.	.	.	.
!	!	!	!	!LO:N:vis=16.	!	!	!	!	!	!
.	.	.	.	16e/JJ	.	.	.	.	.	.
8A\	6	.	.	8ryy	.	.	.	.	.	.
!LO:TX:a:t=P:problem=mixed beam	!	!	!	!	!	!	!	!	!	!
!LO:TX:t=P:problem=nieczytelny znak basu cyfrowanego	!	!	!	!	!	!	!	!	!	!
8B\	.	.	.	4f#/	.	.	.	.	.	.
8BB/J	#	.	.	.	.	.	.	.	.	.
=17	=17	=17	=17	=17	=17	=17	=17	=17	=17	=17
8E\L	.	.	1ryy	4e/	.	1ryy	.	.	1ryy	1ryy
8E\	.	.	.	.	.	.	.	.	.	.
8E\	.	.	.	4r	.	.	.	.	.	.
8E\J	.	.	.	.	.	.	.	.	.	.
8A#X\L	7:	.	.	4.ggn\	.	.	.	.	.	.
8A#\	.	.	.	.	.	.	.	.	.	.
8A#\	.	.	.	.	.	.	.	.	.	.
8A#\J	.	.	.	16ff#\LL	.	.	.	.	.	.
.	.	.	.	16ee\JJ	.	.	.	.	.	.
=18	=18	=18	=18	=18	=18	=18	=18	=18	=18	=18
8B\L	.	.	1ryy	16dd\LL	.	1ryy	00r	.	1ryy	1ryy
.	.	.	.	16cc#\J	.	.	.	.	.	.
8B\	.	.	.	8b\J	.	.	.	.	.	.
8B\	.	.	.	4r	.	.	.	.	.	.
8B\J	.	.	.	.	.	.	.	.	.	.
8G#\L	7:	.	.	4.ff#\	.	.	.	.	.	.
8G#\	.	.	.	.	.	.	.	.	.	.
8G#\	.	.	.	.	.	.	.	.	.	.
8G#\J	.	.	.	16ee\LL	.	.	.	.	.	.
.	.	.	.	16dd\JJ	.	.	.	.	.	.
!	!	!	!	!LO:LB:g=original	!	!	!	!	!	!
=19	=19	=19	=19	=19	=19	=19	=19	=19	=19	=19
8An\L	.	.	1ryy	16cc#\LL	.	1ryy	.	.	1ryy	1ryy
.	.	.	.	16b\J	.	.	.	.	.	.
8A\	.	.	.	8a\J	.	.	.	.	.	.
8A\	.	.	.	8r	.	.	.	.	.	.
8A\J	.	.	.	8ee\	.	.	.	.	.	.
!	!	!	!	!LO:TX:a:t=P:problem=mixed beam	!	!	!	!	!	!
4d\	.	.	.	8ff#\L	.	.	.	.	.	.
.	.	.	.	16d/L	.	.	.	.	.	.
.	.	.	.	16ff#\JJ	.	.	.	.	.	.
!	!	!	!	!LO:TX:a:t=P:problem=mixed beam	!	!	!	!	!	!
4c#\	.	.	.	8ee\L	.	.	.	.	.	.
.	.	.	.	16c#/L	.	.	.	.	.	.
.	.	.	.	16ee\JJ	.	.	.	.	.	.
=20	=20	=20	=20	=20	=20	=20	=20	=20	=20	=20
!	!	!	!	!LO:TX:a:t=P:problem=mixed beam	!	!	!	!	!	!
4B\	.	.	1ryy	8dd\L	.	1ryy	.	.	1ryy	1ryy
.	.	.	.	16B/L	.	.	.	.	.	.
.	.	.	.	16dd\JJ	.	.	.	.	.	.
!	!	!	!	!LO:TX:a:t=P:problem=mixed beam	!	!	!	!	!	!
4A\	.	.	.	8cc#\L	.	.	.	.	.	.
.	.	.	.	16A/L	.	.	.	.	.	.
.	.	.	.	16cc#\JJ	.	.	.	.	.	.
.	.	.	.	8qqcc#/	.	.	.	.	.	.
8G#\L	6	.	.	4b\	.	.	.	.	.	.
16E\L	.	.	.	.	.	.	.	.	.	.
16F#\JJ	.	.	.	.	.	.	.	.	.	.
!LO:LB:g=original	!	!	!	!	!	!	!	!	!	!
8G#\L	.	.	.	8r	.	.	.	.	.	.
8E\J	.	.	.	8b/	.	.	.	.	.	.
=21	=21	=21	=21	=21	=21	=21	=21	=21	=21	=21
4A\	.	.	1ryy	32cc#/LLL	.	1ryy	.	.	1ryy	1ryy
.	.	.	.	32A/	.	.	.	.	.	.
.	.	.	.	32B/	.	.	.	.	.	.
.	.	.	.	32c#/	.	.	.	.	.	.
.	.	.	.	32d/	.	.	.	.	.	.
.	.	.	.	32e/	.	.	.	.	.	.
.	.	.	.	32f#/	.	.	.	.	.	.
.	.	.	.	64g#/L	.	.	.	.	.	.
.	.	.	.	64a/JJJJ	.	.	.	.	.	.
4B\	.	.	.	32b/LLL	.	.	.	.	.	.
.	.	.	.	32B/	.	.	.	.	.	.
.	.	.	.	32c#/	.	.	.	.	.	.
.	.	.	.	32d/	.	.	.	.	.	.
.	.	.	.	32e/	.	.	.	.	.	.
.	.	.	.	32f#/	.	.	.	.	.	.
.	.	.	.	32g#/	.	.	.	.	.	.
.	.	.	.	64a/L	.	.	.	.	.	.
.	.	.	.	64b/JJJJ	.	.	.	.	.	.
!	!	!	!	!LO:TX:a:t=P:problem=mixed beam	!	!	!	!	!	!
4c#\	.	.	.	32ee\LLL	.	.	.	.	.	.
.	.	.	.	32c#/	.	.	.	.	.	.
.	.	.	.	32d/	.	.	.	.	.	.
.	.	.	.	32e/	.	.	.	.	.	.
.	.	.	.	32f#/	.	.	.	.	.	.
.	.	.	.	32g#/	.	.	.	.	.	.
.	.	.	.	32a/	.	.	.	.	.	.
.	.	.	.	64b/L	.	.	.	.	.	.
.	.	.	.	64cc#/JJJJ	.	.	.	.	.	.
!	!	!	!	!LO:TX:a:t=P:problem=mixed beam	!	!	!	!	!	!
4d\	.	.	.	32ff#\LLL	.	.	.	.	.	.
.	.	.	.	32d/	.	.	.	.	.	.
.	.	.	.	32e/	.	.	.	.	.	.
.	.	.	.	32f#/	.	.	.	.	.	.
.	.	.	.	32g#/	.	.	.	.	.	.
.	.	.	.	32a/	.	.	.	.	.	.
.	.	.	.	32b/	.	.	.	.	.	.
.	.	.	.	64cc#/L	.	.	.	.	.	.
.	.	.	.	64dd/JJJJ	.	.	.	.	.	.
!	!	!	!	!LO:LB:g=original	!	!	!	!	!	!
=22	=22	=22	=22	=22	=22	=22	=22	=22	=22	=22
8e\L	.	.	1ryy	8gg#\L	.	1ryy	1r	.	1ryy	1ryy
8e\	.	.	.	8aa\J	.	.	.	.	.	.
8e\	.	.	.	8b\L	.	.	.	.	.	.
8e\J	.	.	.	8dd\J	.	.	.	.	.	.
8A\L	.	.	.	8cc#\L	.	.	.	.	.	.
8D\J	.	.	.	8a\J	.	.	.	.	.	.
!LO:TX:a:t=P:problem=mixed beam	!	!	!	!	!	!	!	!	!	!
8E\L	.	.	.	4b/	.	.	.	.	.	.
8EE/J	.	.	.	.	.	.	.	.	.	.
=23	=23	=23	=23	=23	=23	=23	=23	=23	=23	=23
!	!	!LO:DY:b	!	!	!LO:DY:b	!	!	!	!	!
8AA/L	.	p	1ryy	8a/	p	1ryy	4.ee\	Be-	1ryy	1ryy
8AA/	.	.	.	4cc#/	.	.	.	.	.	.
8AA/	.	.	.	.	.	.	.	.	.	.
8AA/J	.	.	.	8b/	.	.	8dd\	-ne-	.	.
!	!	!	!	!	!	!	!LO:LB:g=original	!	!	!
8AA/L	.	.	.	16a/LL	.	.	16cc#\LL	-di-	.	.
.	.	.	.	16g#/J	.	.	16b\JJ	.	.	.
8AA/	.	.	.	8a/J	.	.	8cc#\	-ctus	.	.
8AA/	.	.	.	8r	.	.	8r	.	.	.
8AA/J	.	.	.	8b/	.	.	8dd\	qui	.	.
=24	=24	=24	=24	=24	=24	=24	=24	=24	=24	=24
8AA/L	.	.	1ryy	16cc#\LL	.	1ryy	16ee\LL	ve-	1ryy	1ryy
.	.	.	.	16b\J	.	.	16dd\JJ	.	.	.
8AA/	.	.	.	8cc#\J	.	.	8ee\	-nit	.	.
8AA/	.	.	.	8r	.	.	8r	.	.	.
8AA/J	.	.	.	8dd\	.	.	8ff#\	in	.	.
8AA/L	.	.	.	16cc#\LL	.	.	8ee\	Do-	.	.
.	.	.	.	16aa\J	.	.	.	.	.	.
8D/J	.	.	.	8aa\J	.	.	16dd\	-mi-	.	.
.	.	.	.	.	.	.	16cc#\	-ne	.	.
!LO:TX:a:t=P:problem=mixed beam	!	!	!	!	!	!	!	!	!	!
8E\L	.	.	.	4b/	.	.	8.b\	Do-	.	.
8EE/J	.	.	.	.	.	.	.	.	.	.
.	.	.	.	.	.	.	16b\	-mi-	.	.
=25	=25	=25	=25	=25	=25	=25	=25	=25	=25	=25
!LO:TX:a:t=P:problem=mixed beam	!	!	!	!	!	!	!	!	!	!
8AA\L	.	.	1ryy	8a\L	.	1ryy	4a\	-ni	1ryy	1ryy
8A\	.	.	.	8cc#\	.	.	.	.	.	.
8A\	.	.	.	8cc#\	.	.	8r	.	.	.
8A\J	.	.	.	8cc#\J	.	.	8a\	qui	.	.
8A#X\L	2	.	.	8ee\L	.	.	4.ggn\	ve-	.	.
8A#\	n:	.	.	8ee\	.	.	.	.	.	.
8A#\	.	.	.	8ee\	.	.	.	.	.	.
8A#\J	.	.	.	8ee\J	.	.	16ff#\LL	.	.	.
.	.	.	.	.	.	.	16ee\JJ	.	.	.
=26	=26	=26	=26	=26	=26	=26	=26	=26	=26	=26
*	*	*	*	*tremolo	*	*	*	*	*	*
8B\L	.	.	1ryy	8dd\L	.	1ryy	16dd\LL	.	1ryy	1ryy
.	.	.	.	.	.	.	16cc#\JJ	.	.	.
!	!	!	!	!	!	!	!LO:SIC:v:s=8b	!	!	!
8B\	.	.	.	8dd\	.	.	8a\	-nit	.	.
8B\	.	.	.	8dd\	.	.	4r	.	.	.
8B\J	.	.	.	8dd\J	.	.	.	.	.	.
8G#\L	7:	.	.	8dd\L	.	.	4.ff#\	in	.	.
8G#\	.	.	.	8dd\	.	.	.	.	.	.
8G#\	.	.	.	8dd\	.	.	.	.	.	.
8G#\J	.	.	.	8dd\J	.	.	16ee\LL	No-	.	.
.	.	.	.	.	.	.	16dd\JJ	.	.	.
!LO:LB:g=original	!	!	!	!	!	!	!	!	!	!
=27	=27	=27	=27	=27	=27	=27	=27	=27	=27	=27
8An\L	7:	.	1ryy	8cc#\L	.	1ryy	16cc#\LL	-mi-	1ryy	1ryy
.	.	.	.	.	.	.	16b\JJ	.	.	.
8A\	.	.	.	8cc#\	.	.	8a\	-ne	.	.
8A\	.	.	.	8cc#\	.	.	8r	.	.	.
8A\J	.	.	.	8cc#\J	.	.	8ee\	.	.	.
*	*	*	*	*Xtremolo	*	*	*	*	*	*
2r	.	.	.	4dd\	.	.	32ff#\LLL	in	.	.
.	.	.	.	.	.	.	32ee\J	.	.	.
.	.	.	.	.	.	.	16dd\J	.	.	.
.	.	.	.	.	.	.	8dd\J	.	.	.
.	.	.	.	4cc#\	.	.	32ee\LLL	no-	.	.
.	.	.	.	.	.	.	32dd\J	.	.	.
.	.	.	.	.	.	.	16cc#\J	.	.	.
.	.	.	.	.	.	.	8cc#\J	.	.	.
!	!	!	!	!	!	!	!LO:LB:g=original	!	!	!
=28	=28	=28	=28	=28	=28	=28	=28	=28	=28	=28
2r	.	.	1ryy	4b/	.	1ryy	32dd\LLL	.	1ryy	1ryy
.	.	.	.	.	.	.	32cc#\	.	.	.
!	!	!	!	!	!	!	!LO:N:vis=16.	!	!	!
.	.	.	.	.	.	.	8.b\JJJ	.	.	.
.	.	.	.	4a/	.	.	8.cc#\	.	.	.
.	.	.	.	.	.	.	16cc#\	-mi-	.	.
8E\L	.	.	.	4g#/	.	.	4b\	-ne	.	.
8F#\	.	.	.	.	.	.	.	.	.	.
8G#\	.	.	.	8r	.	.	8r	.	.	.
8F#\J	.	.	.	8a/	.	.	8dd#X\	in	.	.
!	!	!	!	!LO:LB:g=original	!	!	!	!	!	!
=29	=29	=29	=29	=29	=29	=29	=29	=29	=29	=29
!	!	!	!	!	!	!	!LO:MO:mod=*null:null	!	!	!
*	*	*	*	*tuplet	*	*	*Xtuplet	*	*	*
!	!	!	!	!LO:TX:t=P:problem=w takcie brak wartości ósemki	!	!	!	!	!	!
8E\L	.	.	1ryy	24g#/LL	.	1ryy	24ee\LL	no-	1ryy	1ryy
!	!	!	!	!	!	!	!LO:SIC:v:s=24dd#	!	!	!
.	.	.	.	24f#/	.	.	24dd\	.	.	.
.	.	.	.	24g#/JJ	.	.	24ee\JJ	.	.	.
8G#\J	6	.	.	4a/	.	.	4ff#\	-mi-	.	.
8BB/L	.	.	.	.	.	.	.	.	.	.
8D#X/J	5	.	.	8g#/	.	.	8a\	-ne	.	.
8E\L	.	.	.	4e/	.	.	8g#/	.	.	.
8A\	.	.	.	.	.	.	16f#/	Do-	.	.
.	.	.	.	.	.	.	16e/	.	.	.
!LO:TX:a:t=P:problem=mixed beam	!	!	!	!	!	!	!	!	!	!
8B\	.	.	.	8d#X/	.	.	8.f#/	.	.	.
8BB/J	#	.	.	8r	.	.	.	.	.	.
.	.	.	.	.	.	.	16f#/	-mi-	.	.
=30	=30	=30	=30	=30	=30	=30	=30	=30	=30	=30
8E\L	.	.	1ryy	2ee\	.	1ryy	4e/	-ni	1ryy	1ryy
8E\	.	.	.	.	.	.	.	.	.	.
8E\	.	.	.	.	.	.	4r	.	.	.
8E\J	.	.	.	.	.	.	.	.	.	.
8E\L	.	.	.	16r	.	.	2r	.	.	.
.	.	.	.	16ee\LL	.	.	.	.	.	.
8E\	.	.	.	16ff#\	.	.	.	.	.	.
.	.	.	.	16gg#\JJ	.	.	.	.	.	.
8E\	.	.	.	16aa\LL	.	.	.	.	.	.
.	.	.	.	16bb\	.	.	.	.	.	.
8E\J	.	.	.	16ccc#\	.	.	.	.	.	.
!	!	!	!	!LO:TX:t=P:problem=w źródle pomiędzy 16ddd a 2eee brak kreski taktowej	!	!	!	!	!	!
!	!	!	!	!LO:SIC:v:s=16ddd#JJ	!	!	!	!	!	!
.	.	.	.	16ddd\JJ	.	.	.	.	.	.
=31	=31	=31	=31	=31	=31	=31	=31	=31	=31	=31
8E\L	.	.	1ryy	2eee\	.	1ryy	0r	.	1ryy	1ryy
8E\	.	.	.	.	.	.	.	.	.	.
8E\	.	.	.	.	.	.	.	.	.	.
8E\J	.	.	.	.	.	.	.	.	.	.
!	!	!	!	!LO:MO:mod=*null:null	!	!	!	!	!	!
*	*	*	*	*Xtuplet	*	*	*	*	*	*
8B\L	.	.	.	24ddd#X\LL	.	.	.	.	.	.
.	.	.	.	24eee\	.	.	.	.	.	.
.	.	.	.	24fff#\JJ	.	.	.	.	.	.
8B\	.	.	.	16aa\LL	.	.	.	.	.	.
.	.	.	.	16aa\JJ	.	.	.	.	.	.
*	*	*	*	*tuplet	*	*	*	*	*	*
!	!	!	!	!LO:TUP:a	!	!	!	!	!	!
8B\	.	.	.	24ff#\LL	.	.	.	.	.	.
.	.	.	.	24gg#\	.	.	.	.	.	.
.	.	.	.	24aa\JJ	.	.	.	.	.	.
8B\J	.	.	.	16ff#\LL	.	.	.	.	.	.
.	.	.	.	16ff#\JJ	.	.	.	.	.	.
=32	=32	=32	=32	=32	=32	=32	=32	=32	=32	=32
8E\L	.	.	1ryy	16gg#\LL	.	1ryy	.	.	1ryy	1ryy
.	.	.	.	16ff#\J	.	.	.	.	.	.
8F#\	6	.	.	8ee\J	.	.	.	.	.	.
8G#\	.	.	.	8r	.	.	.	.	.	.
8E\J	.	.	.	8bb\	.	.	.	.	.	.
8D#X/L	7	.	.	4.cccn\	.	.	.	.	.	.
8D#/	6:	.	.	.	.	.	.	.	.	.
8D#/	.	.	.	.	.	.	.	.	.	.
8D#/J	.	.	.	16bb\LL	.	.	.	.	.	.
.	.	.	.	16aa\JJ	.	.	.	.	.	.
=33	=33	=33	=33	=33	=33	=33	=33	=33	=33	=33
4E\	#	.	1ryy	32gg#\LLL	.	1ryy	1r	.	1ryy	1ryy
.	.	.	.	32ee\	.	.	.	.	.	.
.	.	.	.	32ff#\	.	.	.	.	.	.
.	.	.	.	32gg#\	.	.	.	.	.	.
.	.	.	.	32aa\	.	.	.	.	.	.
.	.	.	.	32bb\	.	.	.	.	.	.
.	.	.	.	32ccc#\	.	.	.	.	.	.
!	!	!	!	!LO:SIC:v:s=32ddd#JJJ	!	!	!	!	!	!
.	.	.	.	32ddd\JJJ	.	.	.	.	.	.
!	!	!	!	!LO:TX:a:t=P:problem=mixed beam	!	!	!	!	!	!
8r	.	.	.	8eee\L	.	.	.	.	.	.
8F#\	6	.	.	8a/J	.	.	.	.	.	.
8E\L	.	.	.	32g#/LLL	.	.	.	.	.	.
.	.	.	.	32f#/J	.	.	.	.	.	.
!	!	!	!	!LO:N:vis=32.	!	!	!	!	!	!
.	.	.	.	16e/JJ	.	.	.	.	.	.
8A\	.	.	.	8ryy	.	.	.	.	.	.
!LO:TX:a:t=P:problem=mixed beam	!	!	!	!	!	!	!	!	!	!
8B\	.	.	.	4f#T/	.	.	.	.	.	.
8BB/J	.	.	.	.	.	.	.	.	.	.
!LO:LB:g=original	!	!	!	!	!	!	!	!	!	!
=34	=34	=34	=34	=34	=34	=34	=34	=34	=34	=34
!	!	!	!	!	!LO:DY:b	!	!	!	!	!
8E\L	.	.	1ryy	8e/	p	1ryy	8r	.	1ryy	1ryy
8E\	.	.	.	4g#/	.	.	4b\	Be-	.	.
8E\	.	.	.	.	.	.	.	.	.	.
8E\J	.	.	.	8a/	.	.	8cc#\	-ne-	.	.
!	!	!	!	!LO:LB:g=original	!	!	!	!	!	!
8E\L	.	.	.	16b/LL	.	.	16dd\LL	-di-	.	.
.	.	.	.	16a/	.	.	16cc#\JJ	.	.	.
8E\	.	.	.	16g#/	.	.	16b\LL	.	.	.
.	.	.	.	16a/JJ	.	.	16cc#\JJ	.	.	.
8E\	.	.	.	8b/L	.	.	8dd\	-ctus	.	.
8E\J	.	.	.	8g#/J	.	.	8b\	qui	.	.
!	!	!	!	!	!	!	!LO:LB:g=original	!	!	!
=35	=35	=35	=35	=35	=35	=35	=35	=35	=35	=35
!	!	!	!	!	!LO:DY:b	!	!	!	!	!
4A\	.	.	1ryy	16a/LL	f	1ryy	8cc#\	ve-	1ryy	1ryy
.	.	.	.	16a/	.	.	.	.	.	.
.	.	.	.	16b/	.	.	8a\	-nit	.	.
.	.	.	.	16cc#/JJ	.	.	.	.	.	.
4r	.	.	.	32dd\LLL	.	.	4r	.	.	.
.	.	.	.	32ee\	.	.	.	.	.	.
.	.	.	.	32ff#\	.	.	.	.	.	.
.	.	.	.	32gg#\JJJ	.	.	.	.	.	.
!	!	!	!	!LO:TX:a:t=P:problem=mixed beam	!	!	!	!	!	!
.	.	.	.	16aa\LL	.	.	.	.	.	.
.	.	.	.	16a/JJ	.	.	.	.	.	.
!	!	!	!	!	!LO:DY:b	!	!	!	!	!
8F#\L	.	.	.	4.a#X/	p	.	4.cc#\	Be-	.	.
8F#\	#	.	.	.	.	.	.	.	.	.
8F#\	.	.	.	.	.	.	.	.	.	.
8F#\J	.	.	.	8b/	.	.	8dd#X\	-ne-	.	.
=36	=36	=36	=36	=36	=36	=36	=36	=36	=36	=36
8F#\L	.	.	1ryy	16cc#/LL	.	1ryy	16ee\LL	-di-	1ryy	1ryy
!	!	!	!	!	!	!	!LO:SIC:v:s=16dd#JJ	!	!	!
.	.	.	.	16b/	.	.	16dd\JJ	.	.	.
8F#\	.	.	.	16a#X/	.	.	16cc#\LL	.	.	.
!	!	!	!	!	!	!	!LO:SIC:v:s=16dd#JJ	!	!	!
.	.	.	.	16b/JJ	.	.	16dd\JJ	.	.	.
8F#\	.	.	.	8cc#/L	.	.	8ee\	-ctus	.	.
8F#\J	.	.	.	8a#X/J	.	.	8cc#\	qui	.	.
!	!	!	!	!	!LO:DY:b	!	!	!	!	!
4B\	.	.	.	16b\LL	f	.	16dd#X\LL	ve-	.	.
.	.	.	.	16b\	.	.	16cc#\JJ	.	.	.
.	.	.	.	16cc#\	.	.	8b\	-nit	.	.
.	.	.	.	16dd#X\JJ	.	.	.	.	.	.
4r	.	.	.	32ee\LLL	.	.	8r	.	.	.
.	.	.	.	32ff#\	.	.	.	.	.	.
.	.	.	.	32gg#\	.	.	.	.	.	.
.	.	.	.	32aa#X\JJJ	.	.	.	.	.	.
!	!	!	!	!LO:TX:a:t=P:problem=mixed beam	!	!	!	!	!	!
.	.	.	.	16bb\LL	.	.	8b\	in	.	.
.	.	.	.	16g#/JJ	.	.	.	.	.	.
=37	=37	=37	=37	=37	=37	=37	=37	=37	=37	=37
1r	.	.	1ryy	4a/|	.	1ryy	32cc#\LLL	No-	1ryy	1ryy
.	.	.	.	.	.	.	32b\J	.	.	.
!	!	!	!	!	!	!	!LO:N:vis=16.	!	!	!
.	.	.	.	.	.	.	8.a\JJ	.	.	.
!	!	!	!	!	!LO:DY:t=piano.	!	!	!	!	!
!	!	!	!	!	!LO:DY:b	!	!	!	!	!
.	.	.	.	4g#/|	p	.	32b\LLL	.	.	.
.	.	.	.	.	.	.	32a\J	.	.	.
!	!	!	!	!	!	!	!LO:N:vis=16.	!	!	!
.	.	.	.	.	.	.	8.g#\JJ	.	.	.
.	.	.	.	4f#/|	.	.	32a/LLL	.	.	.
.	.	.	.	.	.	.	32g#/J	.	.	.
!	!	!	!	!	!	!	!LO:N:vis=16.	!	!	!
.	.	.	.	.	.	.	8.f#/JJ	.	.	.
.	.	.	.	4e/|	.	.	32g#/LLL	.	.	.
.	.	.	.	.	.	.	32f#/J	.	.	.
!	!	!	!	!	!	!	!LO:N:vis=16.	!	!	!
.	.	.	.	.	.	.	8.e/JJ	.	.	.
=38	=38	=38	=38	=38	=38	=38	=38	=38	=38	=38
!	!	!	!	!LO:TX:a:t=P:problem=mixed beam	!	!	!	!	!	!
8E\L	.	.	1ryy	16e/LL	.	1ryy	8f#/	-mi-	1ryy	1ryy
.	.	.	.	16ee\J	.	.	.	.	.	.
!	!	!	!	!	!	!	!LO:LB:g=original	!	!	!
8A\	6	.	.	8ee\J	.	.	16g#/LL	-ne	.	.
.	.	.	.	.	.	.	16a/JJ	.	.	.
!LO:TX:a:t=P:problem=mixed beam	!	!	!	!	!	!	!	!	!	!
8B\	.	.	.	4d#X/	.	.	8.f#/	Do-	.	.
8BB/J	.	.	.	.	.	.	.	.	.	.
.	.	.	.	.	.	.	16f#/	-mi-	.	.
8E\L	.	.	.	8e/	.	.	8e/	-ni	.	.
8A\	.	.	.	4cc#\	.	.	4ee\	Be-	.	.
8A\	.	.	.	.	.	.	.	.	.	.
8A\J	.	.	.	8b\	.	.	8dd\	-ne-	.	.
!	!	!	!	!LO:LB:g=original	!	!	!	!	!	!
=39	=39	=39	=39	=39	=39	=39	=39	=39	=39	=39
8A\L	.	.	1ryy	16a/LL	.	1ryy	16cc#\LL	-di-	1ryy	1ryy
.	.	.	.	16g#/J	.	.	16b\JJ	.	.	.
8A\	.	.	.	8a/J	.	.	8cc#\	-ctus	.	.
8A\	.	.	.	8r	.	.	8r	.	.	.
8A\J	.	.	.	8b\	.	.	8dd\	qui	.	.
8A\L	.	.	.	16cc#\LL	.	.	16ee\LL	ve-	.	.
.	.	.	.	16b\J	.	.	16dd\JJ	.	.	.
8A\	.	.	.	8cc#\J	.	.	8ee\	-nit	.	.
8A\	.	.	.	8r	.	.	8r	.	.	.
8A\J	.	.	.	8dd\	.	.	8ff#\	in	.	.
=40	=40	=40	=40	=40	=40	=40	=40	=40	=40	=40
8A\L	6	.	1ryy	16cc#\LL	.	1ryy	8ee\	No-	1ryy	1ryy
.	.	.	.	16aa\J	.	.	.	.	.	.
8D\J	5	.	.	8aa\J	.	.	16dd\	-mi-	.	.
.	.	.	.	.	.	.	16cc#\	-ne	.	.
!LO:TX:a:t=P:problem=mixed beam	!	!	!	!	!	!	!	!	!	!
8E\L	#	.	.	4g#/	.	.	8.b\	Do-	.	.
8EE/J	.	.	.	.	.	.	.	.	.	.
.	.	.	.	.	.	.	16b\	-mi-	.	.
4AA/	.	.	.	8a/L	.	.	8a\	-ni	.	.
.	.	.	.	8a/	.	.	8ccn\	ve-	.	.
8r	.	.	.	8a/	.	.	8cc\	-nit	.	.
8D#X/	76	.	.	8a/J	.	.	8cc\	in	.	.
!	!	!	!	!	!	!	!LO:LB:g=original	!	!	!
=41	=41	=41	=41	=41	=41	=41	=41	=41	=41	=41
4E\	.	.	1ryy	8g#/L	.	1ryy	8b\L	No-	1ryy	1ryy
.	.	.	.	8b/	.	.	8dd\J	.	.	.
8r	.	.	.	8a/	.	.	8cc#\L	.	.	.
!LO:LB:g=original	!	!	!	!	!	!	!	!	!	!
8E\	.	.	.	8g#/J	.	.	8b\J	.	.	.
4E\	.	.	.	8a/L	.	.	8cc#\L	.	.	.
!	!	!	!	!LO:SIC:v:s=8cc#	!	!	!	!	!	!
.	.	.	.	8ccn/	.	.	8ee\J	.	.	.
8r	.	.	.	8b/	.	.	8dd\L	.	.	.
8E\	.	.	.	8a/J	.	.	8cc#\J	.	.	.
=42	=42	=42	=42	=42	=42	=42	=42	=42	=42	=42
4E\	.	.	1ryy	8g#/L	.	1ryy	8b\L	.	1ryy	1ryy
.	.	.	.	8b/	.	.	8dd\J	.	.	.
8r	.	.	.	8a/	.	.	8cc#\L	.	.	.
8E\	.	.	.	8g#/J	.	.	8b\J	.	.	.
8A\L	#	.	.	4a/	.	.	8cc#\	-mi-	.	.
8D\J	.	.	.	.	.	.	16b\	-ne	.	.
.	.	.	.	.	.	.	16a;;\	.	.	.
4E;;\	.	.	.	4g#/	.	.	32g#/LLL	Do-	.	.
.	.	.	.	.	.	.	32e/	.	.	.
.	.	.	.	.	.	.	32f#/	.	.	.
.	.	.	.	.	.	.	32g#/JJJ	.	.	.
.	.	.	.	.	.	.	32a\LLL	.	.	.
.	.	.	.	.	.	.	32b\	.	.	.
.	.	.	.	.	.	.	32cc#\	.	.	.
!	!	!	!	!	!	!	!LO:TX:t=P:problem=w źródle pomiędzy 32dd a 16ee brak kreski taktowej	!	!	!
.	.	.	.	.	.	.	32dd\JJJ	.	.	.
=43	=43	=43	=43	=43	=43	=43	=43-	=43	=43	=43
!	!	!	!	!	!	!	!LO:TX:t=P:problem=takt niemiarowy	!	!	!
1ryy	.	.	1ryy	1ryy	.	1ryy	16ee\LL	.	1ryy	1ryy
.	.	.	.	.	.	.	16.ff#\JJ	.	.	.
.	.	.	.	.	.	.	.	.	.	.
.	.	.	.	.	.	.	8..ryy	.	.	.
.	.	.	.	.	.	.	.	.	.	.
.	.	.	.	.	.	.	.	.	.	.
.	.	.	.	.	.	.	2ryy	.	.	.
.	.	.	.	.	.	.	.	.	.	.
.	.	.	.	.	.	.	.	.	.	.
.	.	.	.	.	.	.	.	.	.	.
.	.	.	.	.	.	.	8ee\	.	.	.
=44	=44	=44	=44	=44	=44	=44	=44-	=44	=44	=44
1ryy	.	.	1ryy	1ryy	.	1ryy	32dd\LLL	.	1ryy	1ryy
.	.	.	.	.	.	.	32cc#\	.	.	.
.	.	.	.	.	.	.	32b\	.	.	.
.	.	.	.	.	.	.	32a\JJJ	.	.	.
.	.	.	.	.	.	.	32g#\LLL	.	.	.
.	.	.	.	.	.	.	32b\	.	.	.
.	.	.	.	.	.	.	32dd\	.	.	.
.	.	.	.	.	.	.	32b\JJJ	.	.	.
.	.	.	.	.	.	.	16ee\LL	.	.	.
.	.	.	.	.	.	.	16cc#\JJ	.	.	.
.	.	.	.	.	.	.	16ff#\LL	.	.	.
.	.	.	.	.	.	.	16dd\JJ	.	.	.
.	.	.	.	.	.	.	16gg#\LL	.	.	.
.	.	.	.	.	.	.	16dd\JJ	.	.	.
!	!	!	!	!	!	!	!LO:TX:a:t=P:problem=mixed beam	!	!	!
.	.	.	.	.	.	.	16aa\LL	.	.	.
.	.	.	.	.	.	.	16a/JJ	.	.	.
!	!	!	!	!	!	!	!LO:LB:g=original	!	!	!
.	.	.	.	.	.	.	8.g#/	.	.	.
.	.	.	.	.	.	.	.	.	.	.
.	.	.	.	.	.	.	16g#/	-mi-	.	.
=45	=45	=45	=45	=45	=45	=45	=45	=45	=45	=45
8AA/L	.	.	1ryy	1ryy	.	1ryy	4a\	-ni	1ryy	1ryy
8AA/	.	.	.	.	.	.	.	.	.	.
8AA/	.	.	.	.	.	.	4r	.	.	.
8AA/J	.	.	.	.	.	.	.	.	.	.
8AA/L	.	.	.	.	.	.	2r	.	.	.
8AA/	.	.	.	.	.	.	.	.	.	.
8AA/	.	.	.	.	.	.	.	.	.	.
8AA/J	.	.	.	.	.	.	.	.	.	.
=46	=46	=46	=46	=46	=46	=46	=46	=46	=46	=46
8AA/L	.	.	1ryy	1ryy	.	1ryy	00r	.	1ryy	1ryy
8AA/	.	.	.	.	.	.	.	.	.	.
8AA/	.	.	.	.	.	.	.	.	.	.
8AA/J	.	.	.	.	.	.	.	.	.	.
!LO:TX:b:t=e	!	!	!	!	!	!	!	!	!	!
8E/L	.	.	.	.	.	.	.	.	.	.
!LO:TX:b:t=e	!	!	!	!	!	!	!	!	!	!
8E/	.	.	.	.	.	.	.	.	.	.
!LO:TX:b:t=e	!	!	!	!	!	!	!	!	!	!
8E/	.	.	.	.	.	.	.	.	.	.
!LO:TX:b:t=e	!	!	!	!	!	!	!	!	!	!
8E/J	.	.	.	.	.	.	.	.	.	.
=47	=47	=47	=47	=47	=47	=47	=47	=47	=47	=47
8A\L	.	.	1ryy	1ryy	.	1ryy	.	.	1ryy	1ryy
8A\	.	.	.	.	.	.	.	.	.	.
8A\	.	.	.	.	.	.	.	.	.	.
8A\J	.	.	.	.	.	.	.	.	.	.
8G#\L	6	.	.	.	.	.	.	.	.	.
8G#\	.	.	.	.	.	.	.	.	.	.
8G#\	.	.	.	.	.	.	.	.	.	.
8G#\J	.	.	.	.	.	.	.	.	.	.
=48	=48	=48	=48	=48	=48	=48	=48	=48	=48	=48
8F#\L	6	.	1ryy	1ryy	.	1ryy	.	.	1ryy	1ryy
8F#\	.	.	.	.	.	.	.	.	.	.
8F#\	.	.	.	.	.	.	.	.	.	.
8F#\J	.	.	.	.	.	.	.	.	.	.
!LO:TX:a:t=P:problem=mixed beam	!	!	!	!	!	!	!	!	!	!
8E\L	.	.	.	.	.	.	.	.	.	.
8A\	.	.	.	.	.	.	.	.	.	.
8B\	.	.	.	.	.	.	.	.	.	.
8BB/J	#	.	.	.	.	.	.	.	.	.
=49	=49	=49	=49	=49	=49	=49	=49	=49	=49	=49
8E\L	.	.	1ryy	1ryy	.	1ryy	.	.	1ryy	1ryy
8E\	.	.	.	.	.	.	.	.	.	.
8E\	.	.	.	.	.	.	.	.	.	.
8E\J	.	.	.	.	.	.	.	.	.	.
*	*reverse	*	*	*	*	*	*	*	*	*
8A#X\L	7n_	.	.	.	.	.	.	.	.	.
*	*Xreverse	*	*	*	*	*	*	*	*	*
8A#\J	.	.	.	.	.	.	.	.	.	.
!LO:LB:g=original	!	!	!	!	!	!	!	!	!	!
8A#\L	.	.	.	.	.	.	.	.	.	.
8A#\J	.	.	.	.	.	.	.	.	.	.
=50	=50	=50	=50	=50	=50	=50	=50	=50	=50	=50
8B\L	X	.	1ryy	1ryy	.	1ryy	00r	.	1ryy	1ryy
8B\	.	.	.	.	.	.	.	.	.	.
8B\	.	.	.	.	.	.	.	.	.	.
8B\J	.	.	.	.	.	.	.	.	.	.
8G#\L	.	.	.	.	.	.	.	.	.	.
8G#\	.	.	.	.	.	.	.	.	.	.
8G#\	.	.	.	.	.	.	.	.	.	.
8G#\J	.	.	.	.	.	.	.	.	.	.
=51	=51	=51	=51	=51	=51	=51	=51	=51	=51	=51
8A\L	.	.	1ryy	1ryy	.	1ryy	.	.	1ryy	1ryy
8A\	.	.	.	.	.	.	.	.	.	.
8A\	.	.	.	.	.	.	.	.	.	.
8A\J	.	.	.	.	.	.	.	.	.	.
4d\	.	.	.	.	.	.	.	.	.	.
4c#\	.	.	.	.	.	.	.	.	.	.
=52	=52	=52	=52	=52	=52	=52	=52	=52	=52	=52
4B\	.	.	1ryy	1ryy	.	1ryy	.	.	1ryy	1ryy
4A\	.	.	.	.	.	.	.	.	.	.
8G#\L	6	.	.	.	.	.	.	.	.	.
16F#\L	.	.	.	.	.	.	.	.	.	.
16G#\JJ	.	.	.	.	.	.	.	.	.	.
8G#\L	.	.	.	.	.	.	.	.	.	.
8E\J	.	.	.	.	.	.	.	.	.	.
=53	=53	=53	=53	=53	=53	=53	=53	=53	=53	=53
4A\	.	.	1ryy	1ryy	.	1ryy	.	.	1ryy	1ryy
4B\	.	.	.	.	.	.	.	.	.	.
4c#\	.	.	.	.	.	.	.	.	.	.
4d\	.	.	.	.	.	.	.	.	.	.
=54	=54	=54	=54	=54	=54	=54	=54	=54	=54	=54
!	!	!	!	!LO:TX:a:mod=:t=Benedictus\n Da Capo ad\nOsanna ut Pleni sunt	!	!LO:TX:a:t=Osanna ut \nPleni ſunt	!LO:TX:a:t=Osanna ut Pleni sunt caeli	!	!	!
!	!	!	!	!LO:TX:t=P:problem=w źródle "Benedictus Da Capo ad Osanna ut Pleni sunt" zapisane na pięciolinii	!	!	!	!	!	!
!	!	!	!	!	!	!LO:TX:t=P:problem=w źródle "Osanna ut Pleni ſunt" zapisane na pięciolinii	!	!	!	!
!	!	!	!	!	!	!	!LO:TX:t=P:problem=w źródle "Osanna ut Pleni sunt caeli" zapisane na pięciolinii	!	!	!
8e\L	.	.	1ryy	1ryy	.	1ryy	0r	.	1ryy	1ryy
8e\	.	.	.	.	.	.	.	.	.	.
8e\	.	.	.	.	.	.	.	.	.	.
8e\J	.	.	.	.	.	.	.	.	.	.
8A\L	.	.	.	.	.	.	.	.	.	.
8D\J	6	.	.	.	.	.	.	.	.	.
!LO:TX:a:t=P:problem=mixed beam	!	!	!	!	!	!	!	!	!	!
8E\L	.	.	.	.	.	.	.	.	.	.
8EE/J	#	.	.	.	.	.	.	.	.	.
=55	=55	=55	=55	=55	=55	=55	=55	=55	=55	=55
2AA/	.	.	1ryy	1ryy	.	1ryy	.	.	1ryy	1ryy
2r	.	.	.	.	.	.	.	.	.	.
!LO:TX:t=P:problem=w źródle "Osanna ut Pleni sunt" zapisane na pięciolinii	!	!	!	!	!	!	!	!	!	!
!LO:TX:a:t=Osanna ut\nPleni sunt	!	!	!	!	!	!	!	!	!	!
==	==	==	==	==	==	==	==	==	==	==
*-	*-	*-	*-	*-	*-	*-	*-	*-	*-	*-
!!!system-decoration: [(g1)][(g2)][(g3)]s7
!!!RDF**kern: | = vertical stroke
!!LO:MO:ori
!!!RDF**dynam: p = pia.
!!!RDF**dynam: f = for.
!!LO:MO:end
!!!filter-modern: sic -sq | shed -e "s/^(\d+[\/\\]right)/$1yy/I; s/^(\d+[\/\\]left)/$1yy/I" | shed -k -e "s/:TUP:/:tup:/L" | shed -e "s/:rj/:RJ/L" | shed -e "s/yy//" | modori -m | shed -e "s/LO:DY:(a|b|rj)/LO:dy:$1/L" | autostem -r | tie -s | shed -k -e "s/[<>]//g" | humtr -p
!!!EED: Antoni Szymański
!!!EEV: 2020-10-02
!!!ENC: Tomasz Grochalski
!!!END: 2020-04-17
!!!ENC-modern: Andrzej Borzym
!!!END-modern: 2022-07-01
!!!YEC: Copyright 2022 Narodowy Instytut Fryderyka Chopina (https://polishscores.org)
!!!YEM: License CC-BY-4.0 (https://creativecommons.org/licenses/by/4.0)
